X:1
T:Étude after Paganini's 9th Caprice
T:Piano Étude after Paganini's 9th Caprice
T:Op. 3, No. 2
T:Robert Schumann
C:Robert Schumann
%%score { ( 1 3 4 ) | ( 2 5 6 7 ) }
L:1/8
Q:1/4=90
M:2/4
K:E
V:1 treble nm="Piano" snm="Pno."
V:3 treble 
V:4 treble 
V:2 bass 
V:5 bass 
V:6 bass 
V:7 bass 
V:1
"^Allegretto"!p! ([gb]/[fa]/ | .[eg])([eg]/[Bf]/ .[Ge])([gb]/[fa]/ | %2
 .[eg])([eg]/[Bf]/ .[Ge])([Ge]/[Bf]/ | .[eg])([Bf]/[eg]/ .[fa])([Bf]/[fa]/ | %4
 .[gb])([fa]/[eg]/ .[Bf])([gb]/[fa]/ | .[eg])([eg]/[Bf]/ .[Ge])([gb]/[fa]/ | %6
 .[eg])([eg]/[Bf]/ .[Ge])([Ge]/[Bf]/ | .[eg])([fa]/[eg]/ .[Bf])[eg]/[Bf]/ | %8
 [Ge]2 z!f! ([G,E]/[EG]/ | .[B,F])([EG]/[FA]/ .[GB])([Ac]/[GB]/ | %10
 .[FA])([EG]/[FA]/ .[B,F])([G,E]/[EG]/ | .[B,F])([EG]/[FA]/ .[GB])([Ac]/[GB]/ | %12
 .[FA])([EG]/[FA]/ [B,F])!p! [gb]/[fa]/ | [eg][eg]/[Bf]/ [Ge]!f![GB]/[FA]/ | %14
 [EG][EG]/[B,F]/ [G,E]!p!([Ge]/[Bf]/ | [eg])([fa]/[eg]/ [Bf])([eg]/[Bf]/ | [Ge]2) z b || %17
[K:G]!mf! ba/g/ ag/f/ | gf/e/ gf/e/ | gf/e/ e^d/e/ | g2 (f=d | g)f/g/ ag/a/ | ba/b/ c'd'/e'/ | %23
 ga/b/ ad'/f/ | g2 z b | ag/f/ gf/e/ | ^d z!f! z b | ag/f/ gf/e/ | b z z b | e'=d'/b/ c'b/a/ | %30
 d'c'/a/ ba/g/ | c'b/g/ ag/f/ | ba/f/ gf/e/ | gf/e/ gf/e/ | ^de/f/ ef/g/ | =ca/=f/ e^f/^d/ | %36
!f! e2 z!p! ([^gb]/[fa]/ ||[K:E]"^ten.""_dolce" [eg])[eg]/[Bf]/"^ten." [Ge][gb]/[fa]/ | %38
"^ten." [eg][eg]/[Bf]/"^ten." [Ge][Ge]/[Bf]/ |"^ten." [eg][Bf]/[eg]/"^ten." [fa][Bf]/[fa]/ | %40
"^ten."!<(! [gb]([fa]/[eg]/ [Bf])([gb]/[fa]/!<)! |!p! .[eg])([eg]/[Bf]/ .[Ge])([gb]/[fa]/ | %42
 .[eg])([eg]/[Bf]/ .[Ge])([Ge]/[Bf]/ | .[eg])([fa]/[eg]/ .[Bf])([eg]/[Bf]/ | %44
 [Ge]2) z!f! ([G,E]/[EG]/ | [B,F])([EG]/[FA]/ [GB])([Ac]/[GB]/ | %46
 [FA])([EG]/[FA]/ [B,F])([G,E]/[EG]/ | [B,F])([EG]/[FA]/ [GB])([Ac]/[GB]/ | %48
 [FA])([EG]/[FA]/ [B,F])!p! [gb]/[fa]/ | [eg][eg]/[Bf]/ [Ge]!f![GB]/[FA]/ | %50
 [EG][EG]/[B,F]/ [G,E]!p![Ge]/[Bf]/ | [eg][fa]/[eg]/ [Bf][eg]/[Bf]/ | [Ge]2 z!f! (!>![Ee] || %53
[K:C] !>![Aa]3 !>![Ee] | !>![Cc]!>![A,A]) z/4 (A/4B/4c/4d/4e/4^f/4^g/4 | %55
 a/)!8va(!(b/4c'/4d'/4e'/4^f'/4^g'/4 a')c''/b'/ |{/b'} Ta'2{^g'a'} g'!8va)! (!>![Dd] | %57
 !>![Ff]3 !>![Dd] | !>![B,B]!>![^G,^G]) z/4 (B/4c/4d/4e/4f/4^g/4a/4 | %59
 b/)!8va(!(c'/4d'/4e'/4f'/4^g'/4a'/4 b')d''/c''/ |{/c''} Tb'2 a'!f! (e' | %61
 a')!p!(e/4d/4^c/4B/4 .A)(a'/4g'/4f'/4e'/4 | .f')(a/4g/4f/4e/4 .d)!f!(f' | %63
 .d')!8va)!!p!(d/4c/4B/4A/4 .G)(g'/4f'/4e'/4d'/4 | .e')(g/4f/4e/4d/4 .c)!f!(e' | %65
 d')!p!(d/4c/4B/4A/4 .^G)!f!(d' | .c')!p!(e/4d/4c/4B/4 .A)(c/4B/4A/4=G/4 | %67
 .F)"_cresc."(A/4G/4F/4E/4 .^D)(c'/4a/4f/4^d/4 | .e)(e/4B/4^G/4B/4 E)!ff! (!>![=G=g] | %69
 !>![cc']3 !>![Gg] | !>![Ee]!>![Cc]) z/4 (c/4d/4e/4f/4g/4a/4b/4 | %71
 c'/)!8va(!d'/4e'/4f'/4g'/4a'/4b'/4 c''e''/d''/ |{/d''} Tc''2{b'c''} b'!8va)! (!>![Dd] | %73
 !>![Ff]3 !>![Dd] | !>![B,B]!>![G,G]) z/4 (B/4c/4d/4e/4f/4g/4a/4 | %75
 b/)!8va(!c'/4d'/4e'/4f'/4g'/4a'/4 b'f''/e''/ |{/e''} Td''2{c''d''} c''!8va)! (g | %77
 .c')(G/4F/4E/4D/4 .C)(c/4e/4g/4e/4 | .f)(c/4_B/4A/4G/4 .F)(f | %79
 .d)(A/4G/4^F/4E/4 .D)(d/4^f/4a/4f/4 | .g)(d/4c/4B/4A/4 .G)(g | %81
 .e)(B/4A/4^G/4^F/4 E)(e/4^g/4b/4g/4 | .a)(e/4d/4c/4B/4 .A)(e/4c/4A/4=G/4 | %83
 .F) (f/4a/4c'/4a/4 .f) (f/4c/4A/4F/4 | .E) (e/4a/4c'/4a/4 .e) (e/4c/4A/4E/4 | %85
 .^D) (^d/4a/4c'/4a/4 .d) (d/4c/4A/4^F/4 | .E) (e/4g/4b/4g/4 .e) (B/4G/4E/4D/4 | %87
 .C) (e/4g/4c'/4g/4 .e) (c/4G/4E/4C/4 | .B,) (e/4g/4b/4g/4 .e) (B/4G/4E/4B,/4 | %89
 .^A,) e/4g/4^a/4g/4 .e ^A/4G/4E/4^C/4 | .B, (^d'/4b'/4^f'/4d'/4 .b) (!>!a/4b/4a/4^f/4 | %91
 .e) (!>!e/4g/4e/4=d/4 .c)"_cresc." (!>!c/4e/4c/4^A/4 | %92
 .B) (!>!^d/4b/4^f/4d/4 .B) (!>!A/4B/4A/4^F/4 | .E) (!>!E/4G/4E/4D/4 .C)!ff! (!>!C/4E/4C/4^A,/4 | %94
 .B,)(6:4:6(!>!B,/4^D/4!>!^F/4B/4!>!^d/4^f/4"^ten." !fermata!b)!p! ([^gb]/[fa]/ || %95
[K:E] .[eg])([eg]/[Bf]/ [Ge])([gb]/[fa]/ | [eg])[eg]/[Bf]/ [Ge][Ge]/[Bf]/ | %97
 [eg][Bf]/[eg]/ [fa][Bf]/[fa]/ | [gb][fa]/[eg]/ [Bf][gb]/[fa]/ | [eg][eg]/[Bf]/ [Ge][gb]/[fa]/ | %100
 [eg][eg]/[Bf]/ [Ge][Ge]/[Bf]/ | [eg][fa]/[eg]/ [Bf][eg]/[Bf]/ | [Ge]2 z!f! ([G,E]/[EG]/ | %103
 [B,F][EG]/[FA]/ [GB][Ac]/[GB]/ | [FA][EG]/[FA]/ [B,F])([G,E]/[EG]/ | %105
 [B,F][EG]/[FA]/ [GB][Ac]/[GB]/ | [FA][EG]/[FA]/ [B,F])!p! ([gb]/[fa]/ | %107
 .[eg])([eg]/[Bf]/ [Ge])!f!([GB]/[FA]/ | [EG][EG]/[B,F]/ [G,E])!p! ([Ge]/[Bf]/ | %109
 [eg][fa]/[eg]/ [Bf][eg]/[Bf]/ | [Ge]2) !arpeggio!!^![Bf][eg]/[Bf]/ | .[Ge]>.[Ge] !fermata![Ge]2 |] %112
V:2
"^dolce" z | .[E,,B,,]([E,G,][B,E]) z | .[E,,B,,]([E,G,][B,E]) z | %3
 .[E,,B,,].[E,B,].[E,,B,,].[D,B,] | [E,,B,,E,][G,,E,G,] [B,,D,B,]3/2 z/ | %5
 .[E,,B,,](!>![E,G,][B,E]) z | .[E,,B,,](!>![E,G,][B,E]) z | [E,,B,,][E,B,][E,,B,,][D,B,] | %8
 [E,,B,,] (!>!B,,B,) z | !>![B,,,B,,]4- | [B,,,B,,]4 | !>![B,,,B,,]4- | [B,,,B,,]3 z | %13
 .[E,,B,,]([E,G,][B,E]) z | !^!E,,!^!B,,!^!E, z | .[E,,B,,].[E,B,].[E,,B,,].[D,B,] | %16
 .[E,,B,,] (!>!B,,B,) z ||[K:G]"^legato"{/E,-G,-B,-} [E,G,B,G] z{/^D,-F,-B,-} [D,F,B,F] z | %18
{/E,-G,-B,-} [E,G,B,G] z{/C,-E,-G,-} [C,E,G,E] z | %19
{/B,,-E,-G,-} [B,,E,G,E] z{/^A,,-E,-G,-} [A,,E,G,^C] z | B,3 z | %21
{/G,-B,-D-} [G,B,DG] z{/F,-A,-D-} [F,A,DF] z |{/G,-B,-D-} [G,B,DG] z{/C,-E,-A,-} [C,E,A,E] z | %23
{/D,-G,-B,-} [D,G,B,D] z{/D,-F,-A,-} [D,F,A,D] z |{/G,,-D,-} ([G,,D,B,] !>!B,,B,) z | %25
{/^D,-F,-B,-} [D,F,B,F] z{/E,-G,-B,-} [E,G,B,G] z |{/B,,-F,-} [B,,F,^D] z z2 | %27
{/^D,-F,-B,-} [D,F,B,F] z{/E,-G,-B,-} [E,G,B,G] z |{/B,,-F,-} [B,,F,^D] z z2 | %29
{/^G,-B,-E-} [G,B,EB] z{/A,-C-E-} [A,CEA] z |{/F,-A,-D-} [F,A,DA] z{/G,-B,-D-} [G,B,DG] z | %31
{/E,-G,-C-} [E,G,CG] z{/F,-A,-C-} [F,A,CF] z |{/^D,-F,-B,-} [D,F,B,F] z{/E,-G,-B,-} [E,G,B,E] z | %33
"_cresc."{/C,-E,-G,-} [C,E,G,E] z{/^A,,-E,-G,-} [A,,E,G,^C] z | %34
{/=A,,-^D,-F,-} [A,,D,F,B,] z{/G,,-B,,-E,-} [G,,B,,E,B,] z | %35
{/A,,-=C,-=F,-} [A,,C,F,A,] z{/B,,-^F,-B,-} [B,,F,B,^D] z | ([E,,B,,E,] !>!B,,B,) z || %37
[K:E] .[E,,B,,]([E,G,][B,E]) z | .[E,,B,,]([E,G,][B,E]) z | .[E,,B,,].[E,B,].[E,,B,,].[D,B,] | %40
 [E,,B,,E,][G,,E,G,] [B,,D,B,]3/2 z/ | .[E,,B,,]([E,G,][B,E]) z | .[E,,B,,]([E,G,][B,E]) z | %43
 [E,,B,,][E,B,][E,,B,,][D,B,] | [E,,B,,] (!>!B,,B,) z | !^![B,,,B,,]4- | [B,,,B,,]4 | %47
 !^![B,,,B,,]4- | [B,,,B,,]3 z | .[E,,B,,]([E,G,][B,E]) z | .E,,.B,,.E, z | %51
 .[E,,B,,].[E,B,].[E,,B,,].[D,B,] | [E,,B,,] (B,,E,) (!>!E, ||[K:C] !>!A,3 !>!E, | %54
 !>!C,!>!A,,) z/4 (A,,/4B,,/4C,/4D,/4E,/4^F,/4^G,/4 | A,/)[K:treble](B,/4C/4D/4E/4^F/4^G/4 A)c/B/ | %56
{/B} TA2{^GA} G[K:bass] (!>!D, | !>!F,3 !>!D, | %58
 !>!B,,!>!^G,,) z/4 (B,,/4C,/4D,/4E,/4F,/4^G,/4A,/4 | B,/)[K:treble](C/4D/4E/4F/4^G/4A/4 B)d/c/ | %60
{/c} TB2 A z |[K:bass] A,,([A,^C][EG]) z | .D,([A,D][FA]) z | .G,,([G,B,][DF]) z | %64
 .C,([G,C][EG]) z | .B,,([E,^G,][B,D]) z | .A,,([E,A,][CE]) z | .F,,([C,F,][A,C]) z | %68
 E,,(E/4B,/4^G,/4B,/4 E,) (!>![=G,,=G,] | !>![C,C]3 !>![G,,G,] | %70
 !>![E,,E,]!>![C,,C,]) z/4[I:staff -1] E/4F/4G/4A/4B/4c/4d/4 | %71
 e/!8va(!f/4g/4a/4b/4c'/4d'/4 e'g'/f'/ |{/f'} Te'2{d'e'} d'!8va)![I:staff +1] (!>![D,,D,] | %73
 !>![F,,F,]3 !>![D,,D,] | !>![B,,,B,,]!>![G,,,G,,]) z/4[I:staff -1] D/4E/4F/4G/4A/4B/4c/4 | %75
 d/!8va(!e/4f/4g/4a/4b/4c'/4 d'a'/g'/ |{/g'} Tf'2{e'f'} e'!8va)![I:staff +1] z | x2 x [C,-E,] | %78
F, F,,A, z | x2 x [D,^F,] | G, G,,B, z | x2 x [E,-^G,] |A, !^!A,,C z | %83
[K:treble] (A/4c/4f/4c/4 .A) C/4F/4A/4c/4 z | (A/4c/4e/4c/4 .A) C/4E/4A/4c/4 z | %85
 (^F/4A/4c/4A/4 .F) C/4F/4A/4c/4 z | (G/4B/4e/4B/4 .G) D/4E/4G/4^A/4 z | %87
 (E/4G/4c/4G/4 .E) c/4G/4E/4C/4 z | (E/4G/4B/4G/4 .E) B/4G/4E/4B,/4 z | %89
 E/4G/4^A/4G/4 .E A/4G/4E/4^C/4 z | ^D/4B/4^F/4D/4 .B, (!>!^f/4a/4f/4^d/4 .B) | %91
 (!>!G/4B/4G/4^F/4 .E) (!>!E/4G/4E/4C/4 .^A,) | %92
 (!>!^D/4=A/4^F/4D/4 .B,)[K:bass] (!>!A,/4B,/4A,/4^F,/4 .^D,) | %93
 (!>!G,/4B,/4G,/4^F,/4 .E,) (E,/4G,/4E,/4D,/4 .C,) | %94
 .B,,(6:4:6(!>!B,,/4^D,/4!>!^F,/4B,/4!>!^D/4[I:staff -1]^F/4) B[I:staff +1] z || %95
[K:E]"^dolce"!ped! .[E,,B,,]([E,G,][B,E]) z!ped-up! |!ped! .[E,,B,,]([E,G,][B,E]) z!ped-up! | %97
 .[E,,B,,].[E,B,].[E,,B,,].[D,B,] | ([E,,B,,E,][G,,E,G,] [B,,D,B,]3/2) z/ | %99
 .[E,,B,,]([E,G,][B,E]) z | .[E,,B,,]([E,G,][B,E]) z | .[E,,B,,].[E,B,].[E,,B,,].[D,B,] | %102
 [E,,B,,] (!>!B,,B,) z | !>![B,,,B,,]4- | [B,,,B,,]4 | !>![B,,,B,,]4- | [B,,,B,,]3 z | %107
 .[E,,B,,]([E,G,][B,E]) z | .E,,.B,,.E, z | .[E,,B,,].[E,B,].[E,,B,,].[D,B,] | %110
 [E,,B,,E,]2{/B,,} !arpeggio![DA]2 | .E>.[E,B,] !fermata![E,B,]2 |] %112
V:3
 x | x4 | x4 | x4 | x4 | x4 | x4 | x4 | x4 | x4 | x4 | x4 | x4 | x4 | x4 | x4 | x!f! x x z || %17
[K:G][I:staff +1] G[I:staff -1]B[I:staff +1] F[I:staff -1]B | %18
[I:staff +1] G[I:staff -1]B[I:staff +1] E[I:staff -1]^A | %19
[I:staff +1] E[I:staff -1]B[I:staff +1] ^C[I:staff -1]G | z [Ge][F^d] z | %21
[I:staff +1] G[I:staff -1]d[I:staff +1] F[I:staff -1]c | %22
[I:staff +1] G[I:staff -1]B[I:staff +1] E[I:staff -1]e | %23
[I:staff +1] D[I:staff -1]d[I:staff +1] D[I:staff -1]c | B2 x z | %25
[I:staff +1] F[I:staff -1]B[I:staff +1] G[I:staff -1]B | z B/c/ B z | %27
[I:staff +1] F[I:staff -1]B[I:staff +1] G[I:staff -1]B |[I:staff +1] ^D[I:staff -1]B x z | %29
[I:staff +1] B[I:staff -1]e[I:staff +1] A[I:staff -1]e | %30
[I:staff +1] A[I:staff -1]d[I:staff +1] G[I:staff -1]d | %31
[I:staff +1] G[I:staff -1]c[I:staff +1] F[I:staff -1]c | %32
[I:staff +1] F[I:staff -1]B[I:staff +1] E[I:staff -1]B | %33
[I:staff +1] E[I:staff -1]G[I:staff +1] ^C[I:staff -1]G | %34
[I:staff +1] B,[I:staff -1]F[I:staff +1] B,[I:staff -1]E | %35
[I:staff +1] A,[I:staff -1]A[I:staff +1] ^D[I:staff -1]A | G z z x ||[K:E] x4 | x4 | x4 | x4 | x4 | %42
 x4 | x4 | x4 | x4 | x4 | x4 | x4 | x4 | x4 | x4 | x4 ||[K:C] x4 | x4 | x/!8va(! x7/2 | %56
 x3!8va)! x | x4 | x4 | x/!8va(! x7/2 | x4 | x4 | x4 | x!8va)! x3 | x4 | x4 | x4 | x4 | x4 | x4 | %70
 x4 | x/!8va(! x7/2 | x3!8va)! x | x4 | x4 | x/!8va(! x7/2 | x3!8va)! x | x4 | x4 | x4 | x4 | x4 | %82
 x4 | x4 | x4 | x4 | x4 | x4 | x4 | x4 | x4 | x4 | x4 | x4 | x4 ||[K:E] x4 | x4 | x4 | x4 | x4 | %100
 x4 | x4 | x4 | x4 | x4 | x4 | x4 | x4 | x4 | x4 | x4 | x4 |] %112
V:4
 x | x4 | x4 | x4 | x4 | x4 | x4 | x4 | x4 | x4 | x4 | x4 | x4 | x4 | x4 | x4 | x4 || %17
[K:G] z x z x | z x z x | z x z x | x4 | z x z x | z x z x | z x z x | x4 | z x z x | x4 | %27
 z x z x | z ^a/!f!c'/ b x | z x z x | z x z x | z x z x | z x z x | z x z x | z x z x | z x z x | %36
 x4 ||[K:E] x4 | x4 | x4 | x4 | x4 | x4 | x4 | x4 | x4 | x4 | x4 | x4 | x4 | x4 | x4 | x4 || %53
[K:C] x4 | x4 | x/!8va(! x7/2 | x3!8va)! x | x4 | x4 | x/!8va(! x7/2 | x4 | x4 | x4 | x!8va)! x3 | %64
 x4 | x4 | x4 | x4 | x4 | x4 | x4 | x/!8va(! x7/2 | x3!8va)! x | x4 | x4 | x/!8va(! x7/2 | %76
 x3!8va)! x | x4 | x4 | x4 | x4 | x4 | x4 | x4 | x4 | x4 | x4 | x4 | x4 | x4 | x4 | x4 | x4 | x4 | %94
 x4 ||[K:E] x4 | x4 | x4 | x4 | x4 | x4 | x4 | x4 | x4 | x4 | x4 | x4 | x4 | x4 | x4 | x4 | x4 |] %112
V:5
 x | x4 | x4 | x4 | x4 | x4 | x4 | x4 | x4 | x4 | x4 | x4 | x4 | x4 | x4 | x4 | x4 ||[K:G] x4 | %18
 x4 | x4 | [E,G,]2 F, z | x4 | x4 | x4 | x4 | x4 | x4 | x4 | x4 | x4 | x4 | x4 | x4 | x4 | x4 | %35
 x4 | x4 ||[K:E] x4 | x4 | x4 | x4 | x4 | x4 | x4 | x4 | x4 | x4 | x4 | x4 | x4 | x4 | x4 | x4 || %53
[K:C] x4 | x4 | x/[K:treble] x7/2 | x3[K:bass] x | x4 | x4 | x/[K:treble] x7/2 | x4 |[K:bass] x4 | %62
 x4 | x4 | x4 | x4 | x4 | x4 | x4 | x4 | x4 | x/!8va(! x7/2 | x3!8va)! x | x4 | x4 | %75
 x/!8va(! x7/2 | x3!8va)! x | C,,([C,E,][G,_B,]) (_B,, | A,,) !^!F,,2 x | .D,,([D,^F,][A,C]) (C, | %80
 B,,) !^!G,,2 x | .E,,([E,^G,][B,D]) (D, |C,) x x2 |[K:treble] x4 | x4 | x4 | x4 | x4 | x4 | x4 | %90
 x4 | x4 | x2[K:bass] x2 | x4 | x4 ||[K:E] x4 | x4 | x4 | x4 | x4 | x4 | x4 | x4 | x4 | x4 | x4 | %106
 x4 | x4 | x4 | x4 | x4 | x4 |] %112
V:6
 x | x4 | x4 | x4 | x4 | x4 | x4 | x4 | x4 | x4 | x4 | x4 | x4 | x4 | x4 | x4 | x4 ||[K:G] x4 | %18
 x4 | x4 | B,,3 x | x4 | x4 | x4 | x4 | x4 | x4 | x4 | x4 | x4 | x4 | x4 | x4 | x4 | x4 | x4 | %36
 x4 ||[K:E] x4 | x4 | x4 | x4 | x4 | x4 | x4 | x4 | x4 | x4 | x4 | x4 | x4 | x4 | x4 | x4 || %53
[K:C] x4 | x4 | x/[K:treble] x7/2 | x3[K:bass] x | x4 | x4 | x/[K:treble] x7/2 | x4 |[K:bass] x4 | %62
 x4 | x4 | x4 | x4 | x4 | x4 | x4 | x4 | x4 | x/!8va(! x7/2 | x3!8va)! x | x4 | x4 | %75
 x/!8va(! x7/2 | x3!8va)! x | x4 | x4 | x4 | x4 | x4 | x4 |[K:treble] x4 | x4 | x4 | x4 | x4 | x4 | %89
 x4 | x4 | x4 | x2[K:bass] x2 | x4 | x4 ||[K:E] x4 | x4 | x4 | x4 | x4 | x4 | x4 | x4 | x4 | x4 | %105
 x4 | x4 | x4 | x4 | x4 | x4 | x4 |] %112
V:7
 x | x4 | x4 | x4 | x4 | x4 | x4 | x4 | x4 | x4 | x4 | x4 | x4 | x4 | x4 | x4 | x4 ||[K:G] x4 | %18
 x4 | x4 | x4 | x4 | x4 | x4 | x4 | x4 | x4 | x4 | x4 | x4 | x4 | x4 | x4 | x4 | x4 | x4 | x4 || %37
[K:E] x4 | x4 | x4 | x4 | x4 | x4 | x4 | x4 | x4 | x4 | x4 | x4 | x4 | x4 | x4 | x4 ||[K:C] x4 | %54
 x4 | x/[K:treble] x7/2 | x3[K:bass] x | x4 | x4 | x/[K:treble] x7/2 | x4 |[K:bass] x4 | x4 | x4 | %64
 x4 | x4 | x4 | x4 | x4 | x4 | x4 | x/!8va(! x7/2 | x3!8va)! x | x4 | x4 | x/!8va(! x7/2 | %76
 x3!8va)! x | x4 | (C,3 C,) | x4 | (D,3 D,) | x4 | E,3 x |[K:treble] x4 | x4 | x4 | x4 | x4 | x4 | %89
 x4 | x4 | x4 | x2[K:bass] x2 | x4 | x4 ||[K:E] x4 | x4 | x4 | x4 | x4 | x4 | x4 | x4 | x4 | x4 | %105
 x4 | x4 | x4 | x4 | x4 | x4 | x4 |] %112

